icons/glyphs/glyph-gparted.svg

<?xml version="1.0" encoding="UTF-8" standalone="no"?><svg height="22" width="22" xmlns="http://www.w3.org/2000/svg"><metadata><rdf:RDF><cc:Work><dc:format>image/svg+xml</dc:format><dc:type/><dc:title/></cc:Work></rdf:RDF></metadata><sodipodi:namedview><inkscape:grid/></sodipodi:namedview><g fill="#d0d0d0"><path d="m10.999984 1.6506568c-3.777231-.0000001-7.193188 2.2817775-8.638672 5.7714843-1.445484 3.4897069-.645515 7.5185469 2.025391 10.1894529s6.701699 3.472828 10.191406 2.027344 5.771485-4.86144 5.771485-8.638672h-2.748047a6.5999999 6.5999999 0 0 1 -6.59961 6.599609 6.5999999 6.5999999 0 0 1 -6.601562-6.599609 6.5999999 6.5999999 0 0 1 6.599609-6.5996092z" opacity=".4"/><path d="m11.000977 4.4003906a6.5999999 6.5999999 0 0 0 -6.601563 6.5996094 6.5999999 6.5999999 0 0 0 6.601563 6.599609 6.5999999 6.5999999 0 0 0 6.599609-6.599609 6.5999999 6.5999999 0 0 0 -6.599609-6.5996094zm0 2.75c2.1329 0 3.849609 1.7167094 3.849609 3.8496094s-1.716709 3.849609-3.849609 3.849609-3.851563-1.716709-3.851563-3.849609 1.718663-3.8496094 3.851563-3.8496094z" stroke-width=".790029"/><path d="m11 0c-6.094 0-11 4.9059999-11 11h1.65c0-5.1799001 4.1701-9.3500001 9.35-9.3500001zm9.35 11c0 5.1799-4.1701 9.35-9.35 9.35v1.65c6.094 0 11-4.906 11-11z" opacity=".2" stroke-opacity=".55" stroke-width="1.54"/></g></svg>

<?xml version="1.0" encoding="UTF-8" standalone="no"?>
<svg
   xmlns:dc="http://purl.org/dc/elements/1.1/"
   xmlns:cc="http://creativecommons.org/ns#"
   xmlns:rdf="http://www.w3.org/1999/02/22-rdf-syntax-ns#"
   xmlns:svg="http://www.w3.org/2000/svg"
   xmlns="http://www.w3.org/2000/svg"
   xmlns:sodipodi="http://sodipodi.sourceforge.net/DTD/sodipodi-0.dtd"
   xmlns:inkscape="http://www.inkscape.org/namespaces/inkscape"
   width="22"
   height="22"
   version="1.1"
   id="svg42"
   sodipodi:docname="glyph-gparted.svg"
   inkscape:version="0.92+devel trunk-10-g98eab9d13d ;2017-06-30 custom">
  <metadata
     id="metadata46">
    <rdf:RDF>
      <cc:Work
         rdf:about="">
        <dc:format>image/svg+xml</dc:format>
        <dc:type
           rdf:resource="http://purl.org/dc/dcmitype/StillImage" />
        <dc:title />
      </cc:Work>
    </rdf:RDF>
  </metadata>
  <sodipodi:namedview
     pagecolor="#002466"
     bordercolor="#ffffff"
     inkscape:document-rotation="0"
     borderopacity="0.22352941"
     objecttolerance="10"
     gridtolerance="10"
     guidetolerance="10"
     inkscape:pageopacity="1"
     inkscape:pageshadow="2"
     inkscape:window-width="1920"
     inkscape:window-height="1051"
     id="namedview44"
     showgrid="false"
     borderlayer="true"
     inkscape:showpageshadow="false"
     inkscape:zoom="7.0755204"
     inkscape:cx="-20.331186"
     inkscape:cy="18.631623"
     inkscape:window-x="0"
     inkscape:window-y="0"
     inkscape:window-maximized="1"
     inkscape:current-layer="svg42">
    <inkscape:grid
       type="xygrid"
       id="grid881" />
  </sodipodi:namedview>
  <defs
     id="defs22">
    <linearGradient
       id="a"
       y1="41"
       y2="7"
       x2="0"
       gradientUnits="userSpaceOnUse">
      <stop
         stop-color="#728790"
         id="stop2" />
      <stop
         offset="1"
         stop-color="#85969e"
         id="stop4" />
    </linearGradient>
    <linearGradient
       id="b"
       y1="36"
       y2="12"
       x2="0"
       gradientUnits="userSpaceOnUse">
      <stop
         stop-color="#06a370"
         id="stop7" />
      <stop
         offset="1"
         stop-color="#22d1b0"
         id="stop9" />
    </linearGradient>
    <linearGradient
       id="c"
       y1="44"
       y2="4"
       x2="0"
       gradientUnits="userSpaceOnUse">
      <stop
         stop-color="#2a2c2f"
         id="stop12" />
      <stop
         offset="1"
         stop-color="#424649"
         id="stop14" />
    </linearGradient>
    <linearGradient
       id="d"
       y1="15"
       x1="15"
       y2="44"
       x2="44"
       gradientUnits="userSpaceOnUse">
      <stop
         stop-color="#020303"
         id="stop17" />
      <stop
         offset="1"
         stop-color="#424649"
         stop-opacity="0"
         id="stop19" />
    </linearGradient>
  </defs>
  <path
     style="color:#000000;font-style:normal;font-variant:normal;font-weight:normal;font-stretch:normal;font-size:medium;line-height:normal;font-family:sans-serif;font-variant-ligatures:normal;font-variant-position:normal;font-variant-caps:normal;font-variant-numeric:normal;font-variant-alternates:normal;font-variant-east-asian:normal;font-feature-settings:normal;font-variation-settings:normal;text-indent:0;text-align:start;text-decoration:none;text-decoration-line:none;text-decoration-style:solid;text-decoration-color:#000000;letter-spacing:normal;word-spacing:normal;text-transform:none;writing-mode:lr-tb;direction:ltr;text-orientation:mixed;dominant-baseline:auto;baseline-shift:baseline;text-anchor:start;white-space:normal;shape-padding:0;clip-rule:nonzero;display:inline;overflow:visible;visibility:visible;opacity:0.4;isolation:auto;mix-blend-mode:normal;color-interpolation:sRGB;color-interpolation-filters:linearRGB;solid-color:#000000;solid-opacity:1;vector-effect:none;fill:#d0d0d0;fill-opacity:1;fill-rule:nonzero;stroke:none;stroke-width:3.29999995;stroke-linecap:butt;stroke-linejoin:miter;stroke-miterlimit:4;stroke-dasharray:none;stroke-dashoffset:0;stroke-opacity:1;color-rendering:auto;image-rendering:auto;shape-rendering:auto;text-rendering:auto;enable-background:accumulate"
     d="M 10.999984,1.6506568 C 7.222753,1.6506567 3.806796,3.9324343 2.361312,7.4221411 0.915828,10.911848 1.715797,14.940688 4.386703,17.611594 c 2.670906,2.670906 6.701699,3.472828 10.191406,2.027344 3.489707,-1.445484 5.771485,-4.86144 5.771485,-8.638672 h -2.748047 a 6.5999999,6.5999999 0 0 1 -6.59961,6.599609 6.5999999,6.5999999 0 0 1 -6.601562,-6.599609 6.5999999,6.5999999 0 0 1 6.599609,-6.5996092 z"
     id="path865"
     inkscape:connector-curvature="0"
     inkscape:label="#3" />
  <path
     style="fill:#d0d0d0;stroke-width:0.79002941"
     d="M 11.000977,4.4003906 A 6.5999999,6.5999999 0 0 0 4.399414,11 6.5999999,6.5999999 0 0 0 11.000977,17.599609 6.5999999,6.5999999 0 0 0 17.600586,11 6.5999999,6.5999999 0 0 0 11.000977,4.4003906 Z m 0,2.75 c 2.1329,0 3.849609,1.7167094 3.849609,3.8496094 0,2.1329 -1.716709,3.849609 -3.849609,3.849609 -2.1329,0 -3.851563,-1.716709 -3.851563,-3.849609 0,-2.1329 1.718663,-3.8496094 3.851563,-3.8496094 z"
     id="path850"
     inkscape:connector-curvature="0"
     inkscape:label="#2" />
  <path
     inkscape:label="#3"
     inkscape:connector-curvature="0"
     id="path870"
     d="M 11,0 C 4.906,0 0,4.9059999 0,11 H 1.65 C 1.65,5.8200999 5.8201,1.6499999 11,1.6499999 Z m 9.35,11 c 0,5.1799 -4.1701,9.35 -9.35,9.35 V 22 c 6.094,0 11,-4.906 11,-11 z"
     style="display:inline;opacity:0.2;fill:#d0d0d0;stroke-width:1.53999996;stroke-opacity:0.55" />
</svg>
